X: 16694
T: Happy Days
R: jig
M: 6/8
K: Gmajor
|:GED GBd|bag egd|cEG BdG|~c3 AFD|
~G3 G z d|bag egd|cBA BAG|GAF G2 z:|
|:g/a/bg afd|ecg dBd|g/a/bg afd|efg gab|
c'ba bag|e/f/gc BGA|Bcd gdB|cAF G2 z:|

